icons/desktop/16/svg/current-view-16.svg

<svg width="16" height="16" viewBox="0 0 16 16" fill="none" xmlns="http://www.w3.org/2000/svg">
<path d="M8 7C8.55228 7 9 7.44772 9 8C9 8.55228 8.55228 9 8 9C7.44772 9 7 8.55228 7 8C7 7.44772 7.44772 7 8 7Z" fill="black"/>
<path fill-rule="evenodd" clip-rule="evenodd" d="M8 4.57031C9.76218 4.5704 11.2999 5.49266 12.1758 6.87305C12.5811 7.51275 12.6069 8.33483 12.252 8.99707L12.1758 9.12695C11.3 10.5061 9.76254 11.4306 8 11.4307C6.34798 11.4306 4.89316 10.6196 3.99609 9.38086L3.82422 9.12695C3.39184 8.44481 3.392 7.55624 3.82422 6.87402C4.69994 5.49479 6.23741 4.5704 8 4.57031ZM8 5.82031C6.76873 5.82039 5.68212 6.42377 5.00879 7.35352L4.87988 7.54297C4.70675 7.81632 4.7061 8.18351 4.87891 8.45703C5.53698 9.4941 6.6867 10.1806 8 10.1807C9.31316 10.1806 10.4629 9.49361 11.1211 8.45703C11.2724 8.21775 11.2913 7.90648 11.1777 7.64941L11.1201 7.54297C10.462 6.50588 9.31332 5.8204 8 5.82031Z" fill="black"/>
<path fill-rule="evenodd" clip-rule="evenodd" d="M8 2C9.4553 2 11.0559 2.05884 12.7773 2.21289L13.5225 2.28516L13.7812 2.32422C15.0525 2.57884 16 3.69884 16 5.02539V10.9746C16 12.3741 14.9513 13.5653 13.5459 13.7119C11.8584 13.8874 10.0011 14 8 14C6.33683 14 4.48373 13.9228 2.47754 13.7148C1.07827 13.5696 0 12.3897 0 10.9746V5.02539C0 3.62588 1.04865 2.43465 2.4541 2.28809C4.14156 2.11265 5.99888 2 8 2ZM8 3.5C6.05512 3.5 4.24992 3.60971 2.60938 3.78027C1.9811 3.84597 1.5 4.38109 1.5 5.02539V10.9746C1.5 11.6135 1.99009 12.1559 2.63281 12.2227C4.58244 12.4247 6.3833 12.5 8 12.5C9.94487 12.5 11.7501 12.3903 13.3906 12.2197C14.0189 12.154 14.5 11.6189 14.5 10.9746V5.02539C14.5 4.38652 14.0099 3.84407 13.3672 3.77734C11.4176 3.5753 9.6167 3.5 8 3.5Z" fill="black"/>
</svg>

<!-- This Source Code Form is subject to the terms of the Mozilla Public
   - License, v. 2.0. If a copy of the MPL was not distributed with this
   - file, You can obtain one at http://mozilla.org/MPL/2.0/. -->
<svg xmlns="http://www.w3.org/2000/svg" width="16" height="16" fill="context-fill" fill-opacity="context-fill-opacity" viewBox="0 0 16 16">
    <path d="M8 7a1 1 0 1 1 0 2 1 1 0 0 1 0-2" />
    <path fill-rule="evenodd" d="M8 4.57c1.762 0 3.3.923 4.176 2.303.405.64.43 1.462.076 2.124l-.076.13A4.94 4.94 0 0 1 8 11.431a4.93 4.93 0 0 1-4.004-2.05l-.172-.254a2.12 2.12 0 0 1 0-2.253A4.94 4.94 0 0 1 8 4.57m0 1.25a3.68 3.68 0 0 0-2.991 1.534l-.13.189a.87.87 0 0 0 0 .914A3.69 3.69 0 0 0 8 10.181a3.69 3.69 0 0 0 3.121-1.724c.151-.24.17-.55.057-.808l-.058-.106A3.69 3.69 0 0 0 8 5.82" clip-rule="evenodd" />
    <path fill-rule="evenodd" d="M8 2c1.455 0 3.056.059 4.777.213l.746.072.258.04A2.76 2.76 0 0 1 16 5.024v5.95c0 1.4-1.049 2.59-2.454 2.737a53.6 53.6 0 0 1-11.068.003A2.76 2.76 0 0 1 0 10.975v-5.95c0-1.4 1.049-2.59 2.454-2.737A54 54 0 0 1 8 2m0 1.5c-1.945 0-3.75.11-5.39.28-.629.066-1.11.601-1.11 1.245v5.95c0 .639.49 1.18 1.133 1.248a52 52 0 0 0 10.758-.003c.628-.066 1.109-.601 1.109-1.245v-5.95c0-.638-.49-1.18-1.133-1.248A52 52 0 0 0 8 3.5" clip-rule="evenodd" />
</svg>
